outputs/icons/charts/chart_scatter_plot_sharp.svg

<svg xmlns="http://www.w3.org/2000/svg" width="1200" height="1200" fill="none"><path fill="#000" d="M350 900c-110.5 0-200-89.5-200-200s89.5-200 200-200 200 89.5 200 200-89.5 200-200 200m0-300c-55 0-100 45-100 100s45 100 100 100 100-45 100-100-45-100-100-100m200-100c-110.5 0-200-89.5-200-200s89.5-200 200-200 200 89.5 200 200-89.5 200-200 200m0-300c-55 0-100 45-100 100s45 100 100 100 100-45 100-100-45-100-100-100m280 880c-110.5 0-200-89.5-200-200s89.5-200 200-200 200 89.5 200 200-89.5 200-200 200m0-300c-55 0-100 45-100 100s45 100 100 100 100-45 100-100-45-100-100-100"/></svg>

<svg width="1200" height="1200" viewBox="0 0 1200 1200" fill="none" xmlns="http://www.w3.org/2000/svg"><path d="M350 900C239.5 900 150 810.5 150 700C150 589.5 239.5 500 350 500C460.5 500 550 589.5 550 700C550 810.5 460.5 900 350 900ZM350 600C295 600 250 645 250 700C250 755 295 800 350 800C405 800 450 755 450 700C450 645 405 600 350 600ZM550 500C439.5 500 350 410.5 350 300C350 189.5 439.5 100 550 100C660.5 100 750 189.5 750 300C750 410.5 660.5 500 550 500ZM550 200C495 200 450 245 450 300C450 355 495 400 550 400C605 400 650 355 650 300C650 245 605 200 550 200ZM830 1080C719.5 1080 630 990.5 630 880C630 769.5 719.5 680 830 680C940.5 680 1030 769.5 1030 880C1030 990.5 940.5 1080 830 1080ZM830 780C775 780 730 825 730 880C730 935 775 980 830 980C885 980 930 935 930 880C930 825 885 780 830 780Z" fill="#1D1E23"/></svg>
